lib/brands/icons/microsoftms.svg

<svg xmlns="http://www.w3.org/2000/svg" fill="none" aria-hidden="true" viewBox="0 0 48 48"><g id="microsoftms-Icon"><g id="Group"><mask id="mask0_94_18848" width="40" height="32" x="4" y="8" maskUnits="userSpaceOnUse" style="mask-type:alpha"><g id="mask0"><path id="Vector" fill="white" d="M29.6121 8.11609C30.0877 8.11609 30.5409 8.31869 30.8581 8.6732L43.5741 22.8851C44.142 23.5199 44.142 24.4801 43.5741 25.1149L30.8581 39.3269C30.5409 39.6814 30.0877 39.884 29.6121 39.884H5.67527C4.23002 39.884 3.46554 38.1742 4.42923 37.0971L16.1477 24L4.42923 10.903C3.46554 9.82591 4.23002 8.11609 5.67527 8.11609H29.6121Z"/></g></mask><g mask="url(#mask0_94_18848)"><g id="Group_2"><path id="Vector_2" fill="url(#paint0_linear_94_18848)" d="M30.3594 8.11609L16.1475 24L1.93555 8.11609H30.3594Z"/><g id="Group_3" filter="url(#filter0_f_94_18848)"><path id="Vector_3" fill="black" fill-opacity="0.24" d="M30.3594 8.28333L1.93555 40.0512H30.3594L44.5714 24.1673L30.3594 8.28333Z"/></g><g id="Group_4" filter="url(#filter1_f_94_18848)"><path id="Vector_4" fill="black" fill-opacity="0.32" d="M30.3594 8.95227L1.93555 40.7202H30.3594L44.5714 24.8362L30.3594 8.95227Z"/></g><path id="Vector_5" fill="url(#paint1_linear_94_18848)" d="M1.93555 39.884L30.3594 8.11609L44.5714 24L30.3594 39.884H1.93555Z"/><path id="Vector_6" fill="url(#paint2_linear_94_18848)" d="M1.93555 39.884L30.3594 8.11609L37.4654 16.0581L16.1475 39.884H1.93555Z"/></g></g></g></g><defs><filter id="filter0_f_94_18848" width="44.2357" height="33.3679" x="1.13555" y="7.48333" color-interpolation-filters="sRGB" filterUnits="userSpaceOnUse"><feFlood flood-opacity="0" result="BackgroundImageFix"/><feBlend in="SourceGraphic" in2="BackgroundImageFix" result="shape"/><feGaussianBlur result="effect1_foregroundBlur_94_18848" stdDeviation="0.4"/></filter><filter id="filter1_f_94_18848" width="58.6357" height="47.7679" x="-6.06445" y="0.952271" color-interpolation-filters="sRGB" filterUnits="userSpaceOnUse"><feFlood flood-opacity="0" result="BackgroundImageFix"/><feBlend in="SourceGraphic" in2="BackgroundImageFix" result="shape"/><feGaussianBlur result="effect1_foregroundBlur_94_18848" stdDeviation="4"/></filter><linearGradient id="paint0_linear_94_18848" x1="21.9995" x2="16.1475" y1="26.926" y2="8.11609" gradientUnits="userSpaceOnUse"><stop stop-color="#0D36A5"/><stop offset="1" stop-color="#1152D4"/></linearGradient><linearGradient id="paint1_linear_94_18848" x1="23.2535" x2="23.2535" y1="8.11609" y2="39.884" gradientUnits="userSpaceOnUse"><stop stop-color="#84CAFF"/><stop offset="1" stop-color="#61B1FB"/></linearGradient><linearGradient id="paint2_linear_94_18848" x1="19.7005" x2="19.7005" y1="8.11609" y2="39.884" gradientUnits="userSpaceOnUse"><stop stop-color="#3B90F5"/><stop offset="1" stop-color="#2A78EE"/></linearGradient></defs></svg>

<svg xmlns="http://www.w3.org/2000/svg" fill="none" aria-hidden="true" viewBox="0 0 48 48"><mask id="a" width="40" height="32" x="4" y="8" maskUnits="userSpaceOnUse" style="mask-type:alpha"><path fill="#fff" d="M29.612 8.116c.476 0 .929.203 1.246.557l12.716 14.212a1.672 1.672 0 0 1 0 2.23L30.858 39.327c-.317.354-.77.557-1.246.557H5.675c-1.445 0-2.21-1.71-1.246-2.787L16.148 24 4.429 10.903c-.963-1.077-.199-2.787 1.246-2.787h23.937Z"/></mask><g mask="url(#a)"><path fill="url(#b)" d="M30.36 8.116 16.147 24 1.936 8.116h28.423Z"/><g filter="url(#c)"><path fill="#000" fill-opacity=".24" d="M30.36 8.283 1.935 40.051h28.423L44.57 24.167 30.36 8.283Z"/></g><g filter="url(#d)"><path fill="#000" fill-opacity=".32" d="M30.36 8.952 1.935 40.72h28.423L44.57 24.836 30.36 8.952Z"/></g><path fill="url(#e)" d="M1.936 39.884 30.359 8.116 44.571 24 30.36 39.884H1.936Z"/><path fill="url(#f)" d="M1.936 39.884 30.359 8.116l7.106 7.942-21.318 23.826H1.937Z"/></g><defs><linearGradient id="b" x1="22" x2="16.148" y1="26.926" y2="8.116" gradientUnits="userSpaceOnUse"><stop stop-color="#0D36A5"/><stop offset="1" stop-color="#1152D4"/></linearGradient><linearGradient id="e" x1="23.253" x2="23.253" y1="8.116" y2="39.884" gradientUnits="userSpaceOnUse"><stop stop-color="#84CAFF"/><stop offset="1" stop-color="#61B1FB"/></linearGradient><linearGradient id="f" x1="19.701" x2="19.701" y1="8.116" y2="39.884" gradientUnits="userSpaceOnUse"><stop stop-color="#3B90F5"/><stop offset="1" stop-color="#2A78EE"/></linearGradient><filter id="c" width="44.236" height="33.368" x="1.136" y="7.483" color-interpolation-filters="sRGB" filterUnits="userSpaceOnUse"><feFlood flood-opacity="0" result="BackgroundImageFix"/><feBlend in="SourceGraphic" in2="BackgroundImageFix" result="shape"/><feGaussianBlur result="effect1_foregroundBlur_94_18848" stdDeviation=".4"/></filter><filter id="d" width="58.636" height="47.768" x="-6.064" y=".952" color-interpolation-filters="sRGB" filterUnits="userSpaceOnUse"><feFlood flood-opacity="0" result="BackgroundImageFix"/><feBlend in="SourceGraphic" in2="BackgroundImageFix" result="shape"/><feGaussianBlur result="effect1_foregroundBlur_94_18848" stdDeviation="4"/></filter></defs></svg>
